X: 21002
M: C
L: 1/8
K: D
d>e |\
{de}f2A>B A3d | B>ABd {f}e2d>e |\
{de}f2A2 gfed | B3c d2d>e |\
{de}f2A>B A3d | B>ABd {f}e2d>e |\
{de}f2A2 gfed | B3c d3 |]
d>ef>g a3a | bagf {f}e3A |\
d>efg a>bag | f3g a2zA |\
d>efg a2ga | bagf {f}e2d>e | {de}f2A2 gfed | B3c d2 |]


